icons/solid/arrow-circle-up.svg

<svg width="24" height="24" viewBox="0 0 24 24" fill="none" xmlns="http://www.w3.org/2000/svg">
<path fill-rule="evenodd" clip-rule="evenodd" d="M2 12C2 6.47715 6.47715 2 12 2C17.5228 2 22 6.47715 22 12C22 17.5228 17.5228 22 12 22C6.47715 22 2 17.5228 2 12ZM11.2929 8.29289L8.29289 11.2929C7.90237 11.6834 7.90237 12.3166 8.29289 12.7071C8.68342 13.0976 9.31658 13.0976 9.70711 12.7071L11 11.4142V15C11 15.5523 11.4477 16 12 16C12.5523 16 13 15.5523 13 15V11.4142L14.2929 12.7071C14.6834 13.0976 15.3166 13.0976 15.7071 12.7071C16.0976 12.3166 16.0976 11.6834 15.7071 11.2929L12.7071 8.29289C12.3166 7.90237 11.6834 7.90237 11.2929 8.29289Z" fill="currentColor"/>
</svg>

<svg width="24" height="24" fill="none" xmlns="http://www.w3.org/2000/svg"><path fill-rule="evenodd" clip-rule="evenodd" d="M2 12C2 6.477 6.477 2 12 2s10 4.477 10 10-4.477 10-10 10S2 17.523 2 12zm9.293-3.707l-3 3a1 1 0 101.414 1.414L11 11.414V15a1 1 0 102 0v-3.586l1.293 1.293a1 1 0 001.414-1.414l-3-3a1 1 0 00-1.414 0z" fill="currentColor"/></svg>
